X:8796
T:L'Estecheiru
C:Beleño
M:6/8
L:1/8
Q:3/8=120
K:F
|:g2 e g2 e|fed edc|g2 e g2 g|bag agf|
g2 e g2 e|fed c3:||:efg e2 c|def e2 c|
efg e2 c|def e3|efg e2 c|def e2 c|
agf gfe|fed c3:||:bag agf|g2 e g2 g|
bag agf|g2 g2 g2|agf gfe|f2 e d3|
cde f2 e|[1 c3 c3:|[2 c6||


